!!!!SEGMENT: pl-stab--24b--001_nowakiewicz-kazimierz--hej-bracia-czy-spicie.krn
!!!cenid: 18xx:3447
!!!COM: Nowakiewicz, Kazimierz
!!!COM-rismID:
!!!CDT: <1800->1824
!!!CNT: Polish
!!!OTL: Hej bracia czy śpicie
!!!PDT: 1850
!!!AGN:
!!!SMS-siglum: PL-STAb
!!!SMS-shelfmark: 24b
!!!SMS-shelfwork: 001 W
!!!SMS-variant:
!!!SMS-altvar:
!!!NIFC-rismSourceID: 301050703
!!!NIFC-islandoraID: pl-stab:3601
!!!URL-pdf-islandora: https://repozytorium.nifc.pl/islandora/object/pl-stab%3A3601/datastream/PDF/view
!!!URL-scan: https://polish.musicsources.pl/pl/lokalizacje/galeria/rekopisy/4465 @EN{Scan on Polish Music Herritage in Open Access Website} @PL{Skany w portalu Dziedzictwo Muzyki Polskiej w otwartym dostępie}
!!!ONB-nifc: UWAGA: Hej bracia czy śpicie na podstawie partytury (Śpiew i Organ). Zamiast partii B podanej na karcie tytułowej, w źródle pojawia się partia S – proszę nie dodawać pustej pięciolinii dla B.
!!!AIN: 2 organ 1 vox
!!!key: G
**kern	**kern	**dynam	**kern	**text
*group2	*group2	*	*group1	*
*part3	*part2	*part2	*part1	*part1
*staff3	*staff2	*	*staff1	*staff1
*I"Organ.	*I"Organ.	*	*I"Spiew.	*
*Iorgan	*Iorgan	*	*Ivox	*
*ICklav	*ICklav	*	*ICvox	*
*IGacmp	*IGacmp	*	*IGsolo	*
*clefF4	*clefG2	*	*clefG2	*
*k[f#]	*k[f#]	*	*k[f#]	*
*G:	*G:	*	*G:	*
*M2/4	*M2/4	*	*M2/4	*
=1	=1	=1	=1	=1
!LO:TX:t=P:problem=all\right&colon; global	!LO:TX:t=P:problem=all\right&colon; global	!	!LO:TX:a:t=Allegretto	!
8D\	8d\ 8dd\	.	2r	.
4D\	4d\ 4dd\	.	.	.
8D\	8d\ 8dd\	.	.	.
=2	=2	=2	=2	=2
8C#X\L	8c#X\L 8cc#X\	.	2r	.
(>8D\	8d\ (>\8dd	.	.	.
8E\)	8e\ 8ee\)	.	.	.
8D\J)	8d\J 8dd\	.	.	.
=3	=3	=3	=3	=3
8C#X\L	8c#X\L 8cc\	.	2r	.
(>8D\	8d\ (>\8dd	.	.	.
8AA\	8A\ 8a\	.	.	.
8D\J)	8d\J) 8dd\	.	.	.
=4	=4	=4	=4	=4
8GG/	8B/ 8b/	.	2r	.
4GG/	4G/ 4g/	.	.	.
8GG/	8G/ 8g/	.	.	.
=5	=5	=5	=5	=5
*2\right	*	*	*	*
2D\ 2A\ 2d\	8f#/L	.	2r	.
.	(<16f#/L	.	.	.
.	16e/JJ)	.	.	.
.	(<16d/LL	.	.	.
.	16e/	.	.	.
.	16f#/	.	.	.
.	16d/JJ)	.	.	.
=6	=6	=6	=6	=6
2GG\ 2D\ 2G\	8g/L	.	2r	.
.	(<16g/L	.	.	.
.	16f#/JJ)	.	.	.
.	(<16g/LL	.	.	.
.	16a/	.	.	.
.	16b/	.	.	.
.	16g/JJ)	.	.	.
=7	=7	=7	=7	=7
2D\ 2A\ 2c\	8f#/L	.	2r	.
.	16f#/L	.	.	.
.	16e/JJ	.	.	.
.	(<16d/LL	.	.	.
.	16e/	.	.	.
.	16f#/	.	.	.
.	16d/JJ)	.	.	.
=8	=8	=8	=8	=8
2D\ 2G\ 2B\	8g/	.	2r	.
.	4g/	.	.	.
.	8ggT>\	.	.	.
=9	=9	=9	=9	=9
*^	*	*	*	*
!LO:N:vis=2	!	!	!	!	!
8D\L	2D/	8ff#\L	.	2r	.
8F#\ 8A\ 8c\	.	16ff#\L	.	.	.
.	.	16ee\JJ	.	.	.
8F#\ 8A\ 8c\	.	(>16dd\LL	.	.	.
.	.	16ee\	.	.	.
8F#\J 8A\ 8c\	.	16ff#\	.	.	.
.	.	16dd\JJ)	.	.	.
!!LO:LB:g=original
=10	=10	=10	=10	=10	=10
!!mixed beam:problem
!LO:TX:a:t=P:problem=mixed beam	!	!	!	!	!
8GG/L	2GG\	8gg\L	.	2r	.
8G\J	.	(>16gg\L	.	.	.
.	.	16ff#\JJ)	.	.	.
!!mixed beam:problem
!LO:TX:a:t=P:problem=mixed beam	!	!	!	!	!
8BB/L 8D/	.	(>16gg\LL	.	.	.
.	.	16aa\	.	.	.
8G\J	.	16bb\	.	.	.
.	.	16gg\JJ)	.	.	.
=11	=11	=11	=11	=11	=11
8D\L	2D\	8ff#\L	.	2r	.
8F#\ 8A\ 8c\	.	16ff#\L	.	.	.
.	.	16ee\JJ	.	.	.
8F#\ 8A\ 8c\	.	(>16dd\LL	.	.	.
.	.	16ee\	.	.	.
8F#\J 8A\ 8c\	.	16ff#\	.	.	.
.	.	16dd\JJ)	.	.	.
=12	=12	=12	=12	=12	=12
8G\L	2GG\ 2G	8gg\	.	2r	.
8D\ 8G\ 8B\	.	4g/	.	.	.
8D\ 8G\ 8B\	.	.	.	.	.
8D\J 8G\ 8B\	.	8g/	.	.	.
*v	*v	*	*	*	*
=13||	=13||	=13||	=13||	=13||
*	*tremolo	*	*	*
!	!	!	!LO:TX:t=P:problem=all\right&colon; global	!
8GG/	8d/L 8dd/	.	8dd\	Hej
8r	8g/	.	4dd\	bra-
8G\	8d/ 8dd/	.	.	.
8r	8g/J	.	8dd\	-cia
*	*Xtremolo	*	*	*
=14	=14	=14	=14	=14
8GG/	8a#X\L 8cc#X\	.	8cc#X\L	czy
8r	8b\ 8dd\	.	8dd\J	.
8G\	8cc#\ 8ee\	.	8ee\	spi-
8r	8b\J 8dd\	.	8dd\	-cie
=15	=15	=15	=15	=15
*^	*	*	*	*
8G\L	[>2GG\	8a#X\L 8cc#X\	.	8cc#X\	czy
8B\ 8d\	.	8b\ 8dd\	.	8dd\	wszy-
8B\ 8d\	.	8a#\	.	8a\	-scy
8B\J 8d\	.	8dd\J	.	8dd\	ba-
=16	=16	=16	=16	=16	=16
8G\L	2GG\]	8b\	.	8b\	-czy-
8B\ 8d\	.	4gg\	.	4g/	-cie
8B\ 8d\	.	.	.	.	.
8B\J 8d\	.	8g/	.	8r	.
*v	*v	*	*	*	*
=17	=17	=17	=17	=17
*	*tremolo	*	*	*
2DD\ 2D\	(<8f#/L 8cc/	.	8f#/	dzi-
.	8d/	.	8f#/	-wy
.	8f#/ 8cc/	.	8d/	nie-
.	8d/J)	.	8f#/	-sły-
=18	=18	=18	=18	=18
2GG\ 2G\	(<8g/L 8b	.	8g/	-cha-
.	8d/	.	4b\	.
.	8g/ 8b	.	.	.
.	8d/J)	.	8g/	-ne
!!LO:LB:g=original
=19	=19	=19	=19	=19
2DD\ 2D\	(<8f#/L 8cc/	.	8f#/	dzi-
.	8d/	.	8f#/	-wy
.	8f#/ 8cc/	.	8d/	nie-
.	8d/J)	.	8f#/	-sły-
*	*Xtremolo	*	*	*
=20	=20	=20	=20	=20
!!mixed beam:problem
!LO:TX:a:t=P:problem=mixed beam	!	!	!	!
8GG/L	8g/L	.	8g/	-ha-
8D\J 8G 8B	8b/J	.	4b\	.
!!mixed beam:problem
!	!LO:TX:a:t=P:problem=mixed beam	!	!	!
8D\L 8G 8B	8a/L	.	.	.
8D\J 8G 8B	8gg\J	.	8g/	-ne
=21	=21	=21	=21	=21
!	!	!LO:DY:a:rj	!	!
8D\L	8ff#\L	f	2r	.
8d\	16ff#\L	.	.	.
.	16ee\JJ	.	.	.
8A\ 8c\	16dd\LL	.	.	.
.	16ee\	.	.	.
8d\J	16ff#\	.	.	.
.	16dd\JJ	.	.	.
=22	=22	=22	=22	=22
8G\L 8B\	8gg\L	.	2r	.
8d\	16gg\L	.	.	.
.	16ff#\JJ	.	.	.
8G\ 8B\	16gg\LL	.	.	.
.	16aa\	.	.	.
8d\J	16bb\	.	.	.
.	16gg\JJ	.	.	.
=23	=23	=23	=23	=23
8D\L	8ff#\L	.	2r	.
8d\	16ff#\L	.	.	.
.	16ee\JJ	.	.	.
8F#\ 8A\ 8c\	16dd\LL	.	.	.
.	16ee\	.	.	.
8d\J	16ff#\	.	.	.
.	16dd\JJ	.	.	.
=24	=24	=24	=24	=24
8G\L 8B\	8gg\	.	2r	.
8d\	4gg\	.	.	.
8G\ 8B\	.	.	.	.
8d\J	8a/	.	.	.
=25	=25	=25	=25	=25
2GG\ 2G\	8r	.	8dd\	aj
.	8d/L 8g/ 8b/	.	4dd\	trwo-
.	8d/ 8g/ 8b/	.	.	.
.	8d/J 8g/ 8b/	.	8dd\	-ga
=26	=26	=26	=26	=26
*	*rep	*	*	*
2GG\ 2G\	8r	.	8cc#X\L	dla-
.	8d/L 8g/ 8b/	.	8dd\J	.
.	8d/ 8g/ 8b/	.	8ee\L	-Bo-
.	8d/J 8g/ 8b/	.	8dd\J	-ga
*	*Xrep	*	*	*
!!LO:PB:g=original
=27	=27	=27	=27	=27
2GG\ 2G\	8r	.	(>8cc#X\	co
.	8d/L 8g/ 8b/	.	8dd\)	.
.	8d/ 8g/ 8b/	.	(>8b\	się
.	8d/J 8g/ 8b/	.	8dd\)	.
=28	=28	=28	=28	=28
2GG\ 2G\	8r	.	8b\	dzie-
.	8d/L 8g/ 8b/	.	4g/	-je
.	8d/ 8g/ 8b/	.	.	.
.	8d/J 8g/ 8b/	.	8r	.
=29	=29	=29	=29	=29
2DD/ 2D/	8r	.	8f#/	jas-
.	8d/L 8a/ 8cc/	.	8f#/	-ność
.	8d/ 8a/ 8cc/	.	8d/	w no-
.	8d/J 8a/ 8cc/	.	8f#/	-cy
=30	=30	=30	=30	=30
2GG\ 2G\	8r	.	8g/	choć
.	8d/L 8g/ 8b/	.	8a/	nie
.	8d/ 8g/ 8b/	.	8b/	dnie-
.	8d/J 8g/ 8b/	.	8g/	-je
=31	=31	=31	=31	=31
2DD/ 2D/	8r	.	8f#/	jas-
.	8d/L 8a/ 8cc/	.	8f#/	-ność
.	8d/ 8a/ 8cc/	.	8d/	w no-
.	8d/J 8a/ 8cc/	.	8f#/	-cy
=32	=32	=32	=32	=32
2GG\ 2G\	8r	.	8g/	hoć
.	8d/L 8g 8b	.	8g/	nie
.	8g/J 8b	.	8g/	dnie-
.	8b\ 8gg	.	8g/	-je
=33	=33	=33	=33	=33
*tremolo	*	*	*	*
!	!LO:TX:a:t=3	!	!	!
8F#\L 8A\ 8c\	(>16ff#\LL	.	2r	.
.	16gg\	.	.	.
8D\	16aa\	.	.	.
.	16bb\JJ)	.	.	.
8F#\ 8A\ 8c\	(>16ccc\LL	.	.	.
.	16bb\	.	.	.
8D\J	16ccc\	.	.	.
.	16aa\JJ)	.	.	.
=34	=34	=34	=34	=34
8G\L 8B\	16bb\LL	.	2r	.
.	16dd\	.	.	.
8D\	16ddd\	.	.	.
.	16dd\JJ	.	.	.
*	*rep	*	*	*
8G\ 8B\	16bb\LL	.	.	.
.	16dd\	.	.	.
8D\J	16ddd\	.	.	.
.	16dd\JJ	.	.	.
*	*Xrep	*	*	*
!!LO:LB:g=original
=35	=35	=35	=35	=35
!	!LO:TX:a:t=3	!	!	!
(>8F#\L 8A\ 8c\	16ff#\LL	.	2r	.
.	(>16gg\	.	.	.
8D\	16aa\	.	.	.
.	16bb\JJ	.	.	.
8F#\ 8A\ 8c\	16ccc\LL	.	.	.
.	16bb\	.	.	.
8D\J)	16ccc\	.	.	.
.	16aa\JJ)	.	.	.
=36	=36	=36	=36	=36
(>8G\L 8B\	(>16gg\LL	.	2r	.
.	16dd\	.	.	.
8D\	16bb\	.	.	.
.	16dd\JJ)	.	.	.
*	*rep	*	*	*
8G\ 8B\	(>16gg\LL	.	.	.
.	16dd\	.	.	.
8D\J)	16bb\	.	.	.
.	16dd\JJ)	.	.	.
*Xtremolo	*Xrep	*	*	*
=37	=37	=37	=37	=37
!	!LO:TX:a:t=3	!	!	!
8D'>\L 8A\	16ff#\LL	.	2r	.
.	(>16gg\	.	.	.
8D'>\ 8A\	16aa\	.	.	.
.	16bb\JJ	.	.	.
8F#'>\ 8A\	16ccc\LL	.	.	.
.	16bb\	.	.	.
8D'>\J 8A\	16ccc\	.	.	.
.	16bb\JJ)	.	.	.
=38	=38	=38	=38	=38
8G'>\L 8d\	(>16gg\LL	.	2r	.
.	16aa\	.	.	.
8G'>\ 8d\	16bb\	.	.	.
.	16ccc\JJ	.	.	.
8B'>\ 8d\	16ddd\LL	.	.	.
.	16bb\	.	.	.
8G'>\J 8d\	16gg\	.	.	.
.	16dd\JJ)	.	.	.
=39	=39	=39	=39	=39
!	!LO:TX:a:t=3	!	!	!
8D'>\L 8A\	(>16ff#\LL	.	2r	.
.	16gg\	.	.	.
8D'>\ 8A\	16aa\	.	.	.
.	16bb\JJ	.	.	.
8F#'>\ 8A\	16ccc\LL	.	.	.
.	16bb\	.	.	.
8D'>\J 8A\	16ccc\	.	.	.
.	16bb\JJ)	.	.	.
=40	=40	=40	=40	=40
(>8G\L	8gg\	.	2r	.
16D\L	8r	.	.	.
16BB\JJ)	.	.	.	.
8GG/	8g/L	.	.	.
8r	(<16a/L	.	.	.
.	16b/JJ)	.	.	.
=41	=41	=41	=41	=41
8C\L 8E\ 8G\ 8c\	8cc\L	.	8cc\	I
8C\ 8E\ 8G\ 8c\	(>16cc\L	.	8cc\	my
.	16b\JJ)	.	.	.
8C\ 8E\ 8G\ 8c\	8cc\L	.	8cc\	też
8C\J 8E\ 8G\ 8c\	(>16cc\L	.	8cc\	pa-
.	16b\JJ)	.	.	.
=42	=42	=42	=42	=42
*rep	*	*	*	*
8C\L 8E\ 8G\ 8c\	(>16cc\LL	.	(>8cc\L	-trze-
.	16dd\	.	.	.
8C\ 8E\ 8G\ 8c\	16ee\	.	8g\J)	.
.	16cc\JJ)	.	.	.
8C\ 8E\ 8G\ 8c\	8g/L	.	4g/	-my
8C\J 8E\ 8G\ 8c\	8g/J	.	.	.
*Xrep	*	*	*	*
!!LO:LB:g=original
=43	=43	=43	=43	=43
8GG\L 8BB\ 8D\ 8Fn\	8dd\L	.	8dd\	a-
8GG\ 8BB\ 8D\ 8F\	(>16dd\L	.	8dd\	-le
.	16cc#X\JJ)	.	.	.
8GG\ 8BB\ 8D\ 8F\	8dd\L	.	8dd\	się
8GG\J 8BB\ 8D\ 8F\	(>16dd\L	.	8dd\	bo-
.	16cc#\JJ)	.	.	.
=44	=44	=44	=44	=44
*rep	*	*	*	*
8GG\L 8BB\ 8D\ 8Fn\	(>16dd\LL	.	(>8dd\L	-je-
.	16ee\	.	.	.
8GG\ 8BB\ 8D\ 8F\	16ff#\	.	8g\J)	.
.	16dd\JJ)	.	.	.
8GG\ 8BB\ 8D\ 8F\	8g/L	.	4g/	-my
8GG\J 8BB\ 8D\ 8F\	8g/J	.	.	.
*Xrep	*	*	*	*
=45	=45	=45	=45	=45
8E\	8r	.	4ee\	pa-
8r	8e\ 8ee\	.	.	.
8C\	8r	.	4cc\	-trząc
8r	8c\ 8cc\	.	.	.
=46	=46	=46	=46	=46
8AA/	8r	.	4.a\	na-
8r	8A/ 8a/	.	.	.
8D\	8r	.	.	.
8r	8d\ 8dd\	.	8dd\	-te
=47	=47	=47	=47	=47
!!mixed beam:problem
!LO:TX:a:t=P:problem=mixed beam	!	!	!	!
8G\L	8r	.	8g/	dzi-
!!mixed beam:problem
!	!LO:TX:a:t=P:problem=mixed beam	!	!	!
8GG/J	8g/L	.	8g/	-wy
8G\L	8gg\J	.	4r	.
8c\J	8cc\ 8ccc\	.	.	.
=48	=48	=48	=48	=48
8E\L 8e\	8ee\L 8eee\	.	2r	.
8E\J 8e\	8ee\J 8eee\	.	.	.
8C\L 8c\	8cc\L 8ccc\	.	.	.
8C\J 8c\	8cc\J 8ccc\	.	.	.
=49	=49	=49	=49	=49
8AA\L 8A\	8a\L 8aa\	.	2r	.
8AA\ 8A\	8a\ 8aa\	.	.	.
8D\ 8d\	8dd\ 8ddd\	.	.	.
8D\J 8d\	8dd\J 8ddd\	.	.	.
=50	=50	=50	=50	=50
16r	8g\L 8gg\	.	4r	.
16G\LL	.	.	.	.
16D\	8g\J 8gg\	.	.	.
16BB\JJ	.	.	.	.
8GG/	8g/	.	8r	.
8r	8r	.	8g/	trwo-
!!LO:PB:g=original
=51	=51	=51	=51	=51
8r	8r	.	4cc\	-ga
!!mixed beam:problem
!LO:TX:a:t=P:problem=mixed beam	!	!	!	!
8C/L	8e/L 8g/ 8cc/	.	.	.
8c\J	8e/J 8g/ 8cc/	.	8r	.
8r	8r	.	8g/	trwo-
=52	=52	=52	=52	=52
8r	8r	.	4dd\	-ga
!!mixed beam:problem
!LO:TX:a:t=P:problem=mixed beam	!	!	!	!
8GG/L	8d/L 8g/ 8b/ 8dd/	.	.	.
8G\J	8d/J 8g/ 8b/ 8dd/	.	8r	.
8r	8r	.	8g/	dla
=53	=53	=53	=53	=53
8E\	8r	.	4ee\	Bo-
8r	8e\ 8ee\	.	.	.
8C/	8r	.	4cc\	-ga
8r	8c\ 8cc\	.	.	.
=54	=54	=54	=54	=54
8AA/	8r	.	4a\	co
8r	8A/ 8a/	.	.	.
8D\	8r	.	4dd\	się
8r	8d\ 8dd\	.	.	.
=55	=55	=55	=55	=55
16r	16r	.	8g/	dzie-
16G\LL	16gg\LL	.	.	.
(>16F#\	(>16ff#\	.	8g/	-je
16E\JJ	16ee\JJ	.	.	.
16D\LL	16dd\LL	.	4r	.
16C\	16cc\	.	.	.
16BB\	16b\)	.	.	.
16AA\JJ)	16a\JJ	.	.	.
=56	=56	=56	=56	=56
4GG/	4g/	.	8r	.
.	.	.	8g/	od
4r	4r	.	8g/	stra-
.	.	.	8g/	-chu
=57	=57	=57	=57	=57
!	!	!LO:DY:a:rj	!	!
8C\L 8G\	8cc\L	p	4cc\	ser-
8C\J 8G\	(>16b\L	.	.	.
.	16cc\JJ)	.	.	.
8BB\L 8G\	8dd\L	.	8dd\	-ce
8BB\J 8G\	(>16cc\L	.	8dd\	tru-
.	16dd\JJ)	.	.	.
=58	=58	=58	=58	=58
8C\L 8G\	8ee\L	.	8ee\	-chle-
8C\ 8G\	8dd\J	.	8cc\	-je
8C\ 8G\	(>16gg\LL	.	4r	.
.	16ff#X\	.	.	.
8C\J 8G\	16gg\	.	.	.
.	16ee\JJ)	.	.	.
=59	=59	=59	=59	=59
8C\L 8G\	8cc\L	.	8r	.
8C\ 8G\	8ee\	.	8cc\	o
8C\ 8G\	8cc\	.	8cc\	ser-
8C\J 8G\	8ee\J	.	8cc\	-ce
=60	=60	=60	=60	=60
4AA\ 4A\	8a\L 8aa\	.	4a/	tru-
.	8a\J 8aa\	.	.	.
4FFn\ 4Fn\	8fn\L 8ffn\	.	4fn/	-chle-
.	8f\J 8ff\	.	.	.
!!LO:LB:g=original
=61	=61	=61	=61	=61
!!mixed beam:problem
!LO:TX:a:t=P:problem=mixed beam	!	!	!	!
8G\L	8d\L 8dd\	.	4d/	-je
8G\	8d\ 8dd\	.	.	.
8GG/	8g\ 8gg\	.	4g/	tru-
8GG/J	8g\J 8gg\	.	.	.
=62	=62	=62	=62	=62
[<2C\ [>2G\	8c\L 8cc\	.	4c/	-chleje
.	8d\ 8dd\	.	.	.
.	8e\ 8ee\	.	4r	.
.	8fn\J 8ffn\	.	.	.
=63	=63	=63	=63	=63
!LO:N:vis=2.	!	!	!	!
2C\_< 2G\_>	8g\L 8gg\	.	2r	.
.	(>16g\L 16gg\	.	.	.
.	16f#X\JJ) 16ff#X	.	.	.
*	*rep	*	*	*
.	8g\L 8gg\	.	.	.
.	(>16g\L 16gg\	.	.	.
.	16f#X\JJ) 16ff#X\	.	.	.
*	*Xrep	*	*	*
=64	=64	=64	=64	=64
2C\_< 2G\_>	8g\L 8gg\	.	2r	.
.	16g\L 16gg\	.	.	.
.	16f#X\JJ 16ff#X\	.	.	.
.	8g\L 8gg\	.	.	.
.	8cc\J 8ccc\	.	.	.
=65	=65	=65	=65	=65
2C\_< 2G\_>	4g\ 4gg\	.	2r	.
.	4e\ 4ee\	.	.	.
=66	=66	=66	=66	=66
2C\_< 2G\_>	8c\L 8cc\	.	2r	.
.	8d\ 8dd\	.	.	.
.	8e\ 8ee\	.	.	.
.	8fn\J 8ffn\	.	.	.
=67	=67	=67	=67	=67
2C\_< 2G\_>	8g\L 8gg\	.	2r	.
.	(>16g\L 16gg\	.	.	.
.	16f#X\JJ) 16ff#X\	.	.	.
*	*rep	*	*	*
.	8g\L 8gg\	.	.	.
.	(>16g\L 16gg\	.	.	.
.	16f#X\JJ) 16ff#X\	.	.	.
*	*Xrep	*	*	*
=68	=68	=68	=68	=68
4C\] 4G\]	8g\L 8gg\	.	2r	.
.	16g\L 16gg\	.	.	.
.	16e\JJ 16ee\	.	.	.
4GG\ 4G\	8fn\L 8ffn\	.	.	.
.	8d\J 8dd\	.	.	.
=69	=69	=69	=69	=69
4CC/ 4C/	4c\ 4cc\	.	2r	.
8CC/ 8C/	8cc\ 8ccc\	.	.	.
8r	8r	.	.	.
=70	=70	=70	=70	=70
[<2GG\ [>2D\ [>2G\	8d\ 8dd\	.	2r	.
.	4d\ 4dd\	.	.	.
.	8d\ 8dd\	.	.	.
!!LO:LB:g=original
=71	=71	=71	=71	=71
2GG\_< 2D\_> 2G\_>	8c#X\L 8cc#X\	.	2r	.
.	8d\ 8dd\	.	.	.
.	8e\ 8ee\	.	.	.
.	8d\J 8dd\	.	.	.
=72	=72	=72	=72	=72
2GG\_< 2D\_> 2G\_>	8c#X\L 8cc\	.	2r	.
.	8d\ 8dd\	.	.	.
.	8a\	.	.	.
.	8d\J 8dd\	.	.	.
=73	=73	=73	=73	=73
2GG\] 2D\] 2G\]	8b\	.	2r	.
.	4gT</	.	.	.
.	8g/	.	.	.
=74	=74	=74	=74	=74
8GG/	8r	.	8dd\	Oj
8r	8d/L 8dd/	.	4dd\	nie-
8G\	8g/	.	.	.
8r	8d/J 8dd/	.	8dd\	-bo
=75	=75	=75	=75	=75
8GG/	8g/L 8b/	.	8cc#X\	o-
8r	8d/ 8b/	.	8dd\	-two-
8G\	8g/	.	8ee\	-rzo-
8r	8d/J 8b/	.	8dd\	-ne
=76	=76	=76	=76	=76
8D\	8f#/L 8a/ 8cc/	.	8cc#X\	woj-
8r	8d/	.	8dd\	-ska
8DD/	8f#/ 8a/ 8cc/	.	8a/	nie-
8r	8d/J	.	8dd\	-zli-
=77	=77	=77	=77	=77
8GG/	8g/L 8b/	.	8b\	-czo-
8r	8d/	.	4g/	-ne
8G\	8g/ 8b/	.	.	.
8r	8d/J	.	8r	.
=78	=78	=78	=78	=78
*	*tremolo	*	*	*
2DD\ 2D\	(<8f#/L 8a/ 8cc/	.	8a/	A-
.	8d/	.	8a/	-niel-
.	8f#/ 8a/ 8cc/	.	8d/	.
.	8d/J)	.	8f#/	-skie
=79	=79	=79	=79	=79
2GG\ 2G\	(<8g/L 8b/	.	8g/	wi-
.	8d/	.	4b\	-dze-
.	8g/ 8b/	.	.	.
.	8d/J)	.	8g/	-my
!!LO:PB:g=original
=80	=80	=80	=80	=80
2DD\ 2D\	(<8f#/L 8a/ 8cc/	.	8f#/	A-
.	8d/	.	8f#/	-niel-
.	8f#/ 8a/ 8cc/	.	8d/	-ski
.	8d/J)	.	8f#/	wi-
*	*Xtremolo	*	*	*
=81	=81	=81	=81	=81
2GG\ 2G\	8g\L 8b\	.	8g/	-dze-
.	8dd\	.	4g/	-my
.	8g\ 8b\	.	.	.
.	8gg\J	.	8r	.
=82	=82	=82	=82	=82
8D\L 8A\	8ff#\L	.	2r	.
8D\ 8A\	16ff#\L	.	.	.
.	16ee\JJ	.	.	.
8F#\ 8A\	(>16dd\LL	.	.	.
.	16ee\	.	.	.
8D\J 8A\	16ff#\	.	.	.
.	16dd\JJ)	.	.	.
=83	=83	=83	=83	=83
8G\L 8d\	8gg\L	.	2r	.
8G\ 8d\	16gg\L	.	.	.
.	16ff#\JJ	.	.	.
8B\ 8d\	(>16gg\LL	.	.	.
.	16aa\	.	.	.
8G\J 8d\	16bb\	.	.	.
.	16gg\JJ)	.	.	.
=84	=84	=84	=84	=84
8D\L 8A\	8ff#\L	.	2r	.
8D\ 8A\	16ff#\L	.	.	.
.	16ee\JJ	.	.	.
8F#\ 8A\	(>16dd\LL	.	.	.
.	16ee\	.	.	.
8D\J 8A\	16ff#\	.	.	.
.	16dd\JJ)	.	.	.
=85	=85	=85	=85	=85
2GG\ 2D\ 2G\	8gg\	.	2r	.
.	4gg\	.	.	.
.	8g/	.	.	.
=86	=86	=86	=86	=86
*	*tremolo	*	*	*
8GG/	(<8g/L 8b/	.	8dd\	Ej
8r	8d/	.	4dd\	trwo-
8G\	8g/ 8b/	.	.	.
8r	8d/J)	.	8dd\	-ga
=87	=87	=87	=87	=87
8GG/	(<8g/L 8b/	.	8cc#X\	dla
8r	8d/	.	8dd\	.
8G\	8g/ 8b/	.	8ee\	Bo-
8r	8d/J)	.	8dd\	-ga
=88	=88	=88	=88	=88
8G\	(<8g/L 8b/	.	8cc#X\	co
8r	8d/	.	8dd\	.
8GG/	8g/ 8b/	.	8a\	się
8r	8d/J)	.	8dd\	.
!!LO:LB:g=original
=89	=89	=89	=89	=89
8G\	8g/L 8b/	.	8b\	dzie-
8r	8d/	.	4g/	-je
8GG/	8g/ 8b/	.	.	.
8r	8d/J	.	8r	.
*	*Xtremolo	*	*	*
=90	=90	=90	=90	=90
*tremolo	*	*	*	*
8D\L 8c\	8f#/L	.	8f#/	od
8D\ 8c\	16f#/L	.	4a/	stra-
.	16e/JJ	.	.	.
8D\ 8c\	16d/LL	.	.	.
.	(<16e/	.	.	.
8D\J 8c\	16f#/	.	8d/	-chu
.	16d/JJ)	.	.	.
=91	=91	=91	=91	=91
8D\L 8B\	8g/L	.	8g/L	ser-
8D\ 8B\	16g/L	.	8a/J	.
.	16f#/JJ	.	.	.
8D\ 8B\	(<16g/LL	.	8b\L	-ce
.	16a/	.	.	.
8D\J 8B\	16b/	.	8dd\J	.
.	16g/JJ)	.	.	.
=92	=92	=92	=92	=92
!!mixed beam:problem
!	!LO:TX:a:t=P:problem=mixed beam	!	!	!
(>8F#\L 8A\ 8c\	8f#/L	.	8f#/	ser-
8D\	16ff#\L	.	4a/	-ce
.	16ee\JJ	.	.	.
8F#\ 8A\ 8c\	(>16dd\LL	.	.	.
.	16ee\	.	.	.
8D\J)	16ff#\	.	8d/	tru-
.	16ee\JJ)	.	.	.
=93	=93	=93	=93	=93
(>8G\L 8B\	8b\ 8gg\	.	8a/L	-chle-
8D\	4g\ 4b\	.	8g/J	.
8G\ 8B\	.	.	8g/	-je
8D\J)	8b\ 8gg\	.	8r	.
=94	=94	=94	=94	=94
(>8F#\L 8A\ 8c\	8ff#\L	.	2r	.
8D\	16ff#\L	.	.	.
.	16ee\JJ	.	.	.
8F#\ 8A\ 8c\	(>16dd\LL	.	.	.
.	16ee\	.	.	.
8D\J)	16ff#\	.	.	.
.	16dd\JJ)	.	.	.
=95	=95	=95	=95	=95
(>8G\L 8B\	8gg\L	.	2r	.
8D\	16gg\L	.	.	.
.	16ff#\JJ	.	.	.
8G\ 8B\	(>16gg\LL	.	.	.
.	16aa\	.	.	.
8D\J)	16bb\	.	.	.
.	16gg\JJ)	.	.	.
=96	=96	=96	=96	=96
(>8F#\L 8A\ 8c\	8ff#\L	.	2r	.
8D\	(>16ff#\L	.	.	.
.	16ee\JJ)	.	.	.
8F#\ 8A\ 8c\	(>16dd\LL	.	.	.
.	16ee\	.	.	.
8D\J)	16ff#\	.	.	.
.	16dd\JJ)	.	.	.
*Xtremolo	*	*	*	*
!!LO:LB:g=original
=97	=97	=97	=97	=97
(>2GG\ [>2D\ (>2G\	8gg\	.	2r	.
.	4gg\	.	.	.
.	16aa\LL	.	.	.
.	16bb\JJ	.	.	.
=98	=98	=98	=98	=98
2D\]) 2A\)	8dd\L	.	2r	.
.	(>16ee\L	.	.	.
.	16ff#\JJ)	.	.	.
.	8dd\L	.	.	.
.	(>16ee\L	.	.	.
.	16ff#\JJ)	.	.	.
=99	=99	=99	=99	=99
[<2GG\ [>2D\ [>2G\	8gg\L	.	2r	.
.	(>16aa\L	.	.	.
.	16bb\JJ)	.	.	.
.	8gg\L	.	.	.
.	(>16aa\L	.	.	.
.	16bb\JJ)	.	.	.
=100	=100	=100	=100	=100
2GG\] 2D\] 2G\]	8gg\L	.	2r	.
.	8bb\	.	.	.
.	8ddd\	.	.	.
.	8bb\J	.	.	.
=101	=101	=101	=101	=101
4GG\ 4D\ 4G\	8gg\L	.	2r	.
.	16aa\L	.	.	.
.	16bb\JJ	.	.	.
4D\ 4A\	8dd\L	.	.	.
.	16ee\L	.	.	.
.	16ff#\JJ	.	.	.
=102	=102	=102	=102	=102
!!mixed beam:problem
!	!LO:TX:a:t=P:problem=mixed beam	!	!	!
4GG/ 4G/	8gg\L	.	8r	.
.	8g/ 8b/ 8dd/	.	8dd\	Hej
4D\	8g/ 8b/ 8dd/	.	4dd\	pa-
.	8g/J 8b/ 8dd/	.	.	.
=103	=103	=103	=103	=103
4G\	8r	.	8cc#X\	-ste-
.	8d/L 8g/ 8b/	.	8dd\	-rze
4GG/	8d/ 8g/ 8b/	.	8ee\	mi-
!LO:TX:a:t=VS&colon;	!	!	!	!
.	8d/J 8g/ 8b/	.	8dd\	-li
!!LO:PB:g=original
=104	=104	=104	=104	=104
4GG/	8r	.	8cc#X\	dzi-
.	8d/L 8g/ 8b/	.	8dd\	-siaj
4G\	8d/ 8g/ 8b/	.	8a/	o
.	8d/J 8g/ 8b/	.	8dd\	tej
=105	=105	=105	=105	=105
*	*rep	*	*	*
4GG/	8r	.	8b\	chwi-
.	8d/L 8g/ 8b/	.	4g/	-li
4G\	8d/ 8g/ 8b/	.	.	.
.	8d/J 8g/ 8b/	.	8r	.
*	*Xrep	*	*	*
=106	=106	=106	=106	=106
4D\	8r	.	8f#/	Chry-
.	8d/L 8f#/ 8a/	.	8f#/	-stus
4DD/	8d/ 8f#/ 8a/	.	8d/	się
.	8d/J 8f#/ 8a/	.	8f#/	na-
=107	=107	=107	=107	=107
4GG/	8r	.	8g/	-ro-
.	8d/L 8g/ 8b/	.	4b\	-dził
4G\	8d/ 8g/ 8b/	.	.	.
.	8d/J 8g/ 8b/	.	8r	.
=108	=108	=108	=108	=108
4D\	8r	.	8f#/	Chry-
.	8d/L 8f#/ 8a/ 8cc/	.	8f#/	-stus
4DD/	8d/ 8f#/ 8a/ 8cc/	.	8d/	się
.	8d/J 8f#/ 8a/ 8cc/	.	8f#/	na-
=109	=109	=109	=109	=109
8G\L	8g\L 8b\	.	8g/	-ro-
16D\L	8g\ 8b\	.	4g/	-dził
16BB\JJ	.	.	.	.
4GG/	8g\ 8b\	.	.	.
.	8gg\J	.	8r	.
=110	=110	=110	=110	=110
[<2GG/ [>2D/	8d\ 8dd\	.	8dd\	by
.	4d\ 4dd\	.	4dd\	do
.	8d\ 8dd\	.	8dd\	Be-
=111	=111	=111	=111	=111
!LO:TX:t=P:problem=brak początku ligatury	!	!	!	!
2GG/_< 2D/_>	8c#X\L 8cc	.	8cc#X\	-tle-
.	8d\ 8dd\	.	8dd\	-em
!	!	!	!LO:SIC:v:s:l:t=za dużo sylab w stosunku do nut	!
.	8e\ 8ee\	.	8ee\	bież-
.	8d\J 8dd\	.	8dd\	-ecie
!!LO:LB:g=original
=112	=112	=112	=112	=112
2GG/_< 2D/_>	8c#X\L 8cc\	.	8cc#X\	tam
.	8d\ 8dd\	.	8dd\	dzie-
.	8a\	.	8a\	-cie
.	8d\J 8dd\	.	8dd\	znaj-
=113	=113	=113	=113	=113
2GG/] 2D/]	8b\	.	8b\	-dzie-
.	4g/	.	4g/	-cie
.	8g/	.	8g/	tam
=114	=114	=114	=114	=114
8D\L	8f#/L	.	8f#/	dzie-
8F#\ 8A\ 8c\	16f#/L	.	8f#/	-cie
.	16e/JJ	.	.	.
8F#\ 8A\ 8c\	(<16d/LL	.	8d/	znaj-
.	16e/	.	.	.
8F#\J 8A\ 8c\	16f#/	.	8f#/	.
.	16d/JJ)	.	.	.
=115	=115	=115	=115	=115
*tremolo	*	*	*	*
(>8G\L 8B\	8g/L	.	8a/	-dzie-
8D\	16g/L	.	4b\	-cie
.	16f#/JJ	.	.	.
8G\ 8B\	16g/LL	.	.	.
.	(<16a/	.	.	.
8D\J)	16b/	.	8r	.
.	16g/JJ)	.	.	.
*Xtremolo	*	*	*	*
=116	=116	=116	=116	=116
8F#\L 8A\ 8c\	8f#/L	.	8f#/	tam
8D\	16f#/L	.	8f#/	dzie-
.	16e/JJ	.	.	.
8F#\ 8A\ 8c\	16d/LL	.	8d/	-cie
.	(<16e/	.	.	.
8D\J	16f#/	.	8f#/	znaj-
.	16d/JJ)	.	.	.
=117	=117	=117	=117	=117
*tremolo	*	*	*	*
8G\L 8B\	8g/	.	8g/	-dzie-
8D\	4g/	.	4g/	-cie
8G\ 8B\	.	.	.	.
8D\J	8gg\	.	8r	.
=118	=118	=118	=118	=118
8D\L 8F#\ 8c\	(>16ff#\LL	.	2r	.
.	16ee\	.	.	.
8D\ 8F#\ 8c\	16dd\	.	.	.
.	16ee\JJ)	.	.	.
8D\ 8F#\ 8c\	(>16ff#\LL	.	.	.
.	16gg\	.	.	.
8D\J 8F#\ 8c\	16aa\	.	.	.
.	16ff#\JJ)	.	.	.
=119	=119	=119	=119	=119
8D\L 8G\ 8B\	8gg\L	.	2r	.
8D\ 8G\ 8B\	8gg\J	.	.	.
8D\ 8G\ 8B\	8b\L 8bb\	.	.	.
8D\J 8G\ 8B\	8g\J 8gg\	.	.	.
!!LO:LB:g=original
=120	=120	=120	=120	=120
8D\L 8F#\ 8A\ 8c\	8f#\L 8ff#\	.	2r	.
8D\ 8F#\ 8A\ 8c\	8a\ 8aa\	.	.	.
8D\ 8F#\ 8A\ 8c\	8dd\ 8ddd\	.	.	.
8D\J 8F#\ 8A\ 8c\	8f#\J 8ff#\	.	.	.
=121	=121	=121	=121	=121
8C\L 8G\ 8B\	4.gg\	.	2r	.
8C\ 8G\ 8B\	.	.	.	.
8C\ 8G\ 8B\	.	.	.	.
8C\J 8G\ 8B\	8gg\	.	.	.
*Xtremolo	*	*	*	*
=122	=122	=122	=122	=122
[<2D\ [>\2A [>\2d	4.ff#\	.	2r	.
.	8aa\	.	.	.
=123	=123	=123	=123	=123
2D\] 2A\] 2d\]	8.dd\L	.	2r	.
.	16ccc\Jk	.	.	.
.	8.ff#\L	.	.	.
.	16aa\Jk	.	.	.
=124	=124	=124	=124	=124
[<2GG\ [>2D\ [>2G\	4.gg\	.	2r	.
.	8bb\	.	.	.
=125	=125	=125	=125	=125
2GG\] 2D\] 2G\]	8.gg\L	.	2r	.
.	16bb\Jk	.	.	.
.	8.gg\L	.	.	.
.	16ddd\Jk	.	.	.
=126	=126	=126	=126	=126
[<2D\ [>2F#\ [>2A\	4.ff#\	.	2r	.
.	8aa\	.	.	.
=127	=127	=127	=127	=127
2D\] 2F#\] 2A\]	8.dd\L	.	2r	.
.	16ddd\Jk	.	.	.
.	8.ff#\L	.	.	.
.	16aa\Jk	.	.	.
=128	=128	=128	=128	=128
8G\L	8gg\L	.	2r	.
(>16F#\L	(>16ff#\L	.	.	.
16E\JJ	16ee\JJ	.	.	.
16D\LL	16dd\LL	.	.	.
16C\	16cc\	.	.	.
16BB\	16b\	.	.	.
16AA\JJ)	16a\JJ)	.	.	.
!!LO:PB:g=original
=129	=129	=129	=129	=129
8GG/L	4g/	.	4g/	.
8BB/	.	.	.	.
8D/	4g/ 4b/ 4dd/	.	4g\ 4b\ 4dd\	.
8GG/J	.	.	.	.
=130	=130	=130	=130	=130
4GG/ 4G/	4g\ 4b\ 4dd\ 4gg\	.	4g\ 4b\ 4dd\ 4gg\	.
4r	4r	.	4r	.
==	==	==	==	==
*-	*-	*-	*-	*-
!!!system-decoration: g1[{g2}]
!!!RDF**kern: > = above
!!!RDF**kern: < = below
!!!ENC: Berenika Jozajtis
!!!END: 2021-11-22
!!!EED: Jędrzej Mróz
!!!EEV: 2021-12-01
